svg/LeftHanded/ew-resize.svg

<?xml version="1.0" encoding="UTF-8" standalone="no"?>
<!-- Created with Inkscape (http://www.inkscape.org/) -->

<svg
   xmlns:dc="http://purl.org/dc/elements/1.1/"
   xmlns:cc="http://creativecommons.org/ns#"
   xmlns:rdf="http://www.w3.org/1999/02/22-rdf-syntax-ns#"
   xmlns:svg="http://www.w3.org/2000/svg"
   xmlns="http://www.w3.org/2000/svg"
   xmlns:xlink="http://www.w3.org/1999/xlink"
   version="1.0"
   width="500"
   height="500"
   viewBox="0 0 1000 1000"
   id="page"
   xml:space="preserve"><metadata
     id="metadata11"><rdf:RDF><cc:Work
         rdf:about=""><dc:format>image/svg+xml</dc:format><dc:type
           rdf:resource="http://purl.org/dc/dcmitype/StillImage" /><dc:title></dc:title></cc:Work></rdf:RDF></metadata><defs
     id="defs38"><linearGradient
       id="linearGradient2218"><stop
         id="stop2220"
         style="stop-color:#999999;stop-opacity:1"
         offset="0" /><stop
         id="stop2222"
         style="stop-color:#555555;stop-opacity:1"
         offset="1" /></linearGradient><linearGradient
       x1="190.61638"
       y1="288.67795"
       x2="190.61638"
       y2="566.41406"
       id="linearGradient3885"
       xlink:href="#linearGradient2218"
       gradientUnits="userSpaceOnUse"
       gradientTransform="translate(7.762678e-5,-9.988783e-6)" /><linearGradient
       x1="190.61638"
       y1="288.67795"
       x2="190.61638"
       y2="566.41406"
       id="linearGradient3885-6"
       xlink:href="#linearGradient2218-6"
       gradientUnits="userSpaceOnUse"
       gradientTransform="translate(7.762678e-5,-9.988783e-6)" /><linearGradient
       id="linearGradient2218-6"><stop
         id="stop2220-7"
         style="stop-color:#999999;stop-opacity:1"
         offset="0" /><stop
         id="stop2222-8"
         style="stop-color:#555555;stop-opacity:1"
         offset="1" /></linearGradient><filter
       x="-0.17068256"
       y="-0.40412137"
       width="1.3413651"
       height="1.8082428"
       color-interpolation-filters="sRGB"
       id="filter3790"><feGaussianBlur
         id="feGaussianBlur3792"
         stdDeviation="43.398618" /></filter></defs><path
     d="m 792.11401,808.89166 c 0,-12.728 -164.64,-140.833 -177.354,-128.116 -12.729,12.72901 -26.292,51.74801 -39.021,64.477 -12.728,12.729 -63.64,12.729 -89.095,12.729 -25.456,-0.001 -76.368,-0.001 -89.095,-12.729 -12.729,-12.729 -25.392,-50.84701 -38.116,-63.573 -12.751,-12.75 -177.04498,114.475 -177.55298,125.092 -0.707,14.85 165.60398,141.282 178.33198,128.554 11.465,-11.465 24.607,-50.064 37.336,-62.792 12.729,-12.728 70.004,-12.728 89.096,-12.728 12.728,0 76.368,0 89.095,12.729 12.729,12.728 25.029,50.485 38.688,64.145 13.083,13.078 177.687,-113.574 177.687,-127.788 z"
     transform="matrix(1.2,0,0,1.2,-78.660504,-422.96269)"
     id="path3870-6"
     style="opacity:0.15;fill:#111111;fill-opacity:1;stroke:none;filter:url(#filter3790)" /><path
     d="m 810.85269,427.68042 c 10e-6,-12.728 -164.63999,-140.833 -177.35399,-128.116 -12.729,12.72901 -26.292,51.74801 -39.021,64.477 -12.728,12.729 -63.64,12.729 -89.095,12.729 -25.456,-10e-4 -76.368,-10e-4 -89.095,-12.729 -12.72901,-12.729 -25.392,-50.84701 -38.116,-63.573 -12.751,-12.75 -177.045,114.475 -177.553,125.092 -0.707,14.85 165.604,141.282 178.332,128.554 11.465,-11.465 24.607,-50.064 37.336,-62.792 12.72901,-12.728 70.004,-12.728 89.096,-12.728 12.72799,0 76.368,0 89.095,12.729 12.729,12.728 25.029,50.48499 38.688,64.145 13.083,13.078 177.68699,-113.574 177.68699,-127.788 z"
     id="path3870"
     style="opacity:0.75;fill:url(#linearGradient3885);fill-opacity:1;stroke:#000000;stroke-width:20;stroke-linecap:round;stroke-linejoin:round;stroke-miterlimit:1;stroke-dasharray:none" /></svg>

<?xml version="1.0" encoding="UTF-8" standalone="no"?>
<!-- Created with Inkscape (http://www.inkscape.org/) -->
<svg
   xmlns:svg="http://www.w3.org/2000/svg"
   xmlns="http://www.w3.org/2000/svg"
   xmlns:xlink="http://www.w3.org/1999/xlink"
   version="1.0"
   width="500"
   height="500"
   viewBox="0 0 1000 1000"
   id="page"
   xml:space="preserve"><defs
     id="defs38"><linearGradient
       id="linearGradient2218"><stop
         id="stop2220"
         style="stop-color:#999999;stop-opacity:1"
         offset="0" /><stop
         id="stop2222"
         style="stop-color:#555555;stop-opacity:1"
         offset="1" /></linearGradient><linearGradient
       x1="190.61638"
       y1="288.67795"
       x2="190.61638"
       y2="566.41406"
       id="linearGradient3885"
       xlink:href="#linearGradient2218"
       gradientUnits="userSpaceOnUse"
       gradientTransform="translate(7.762678e-5,-9.988783e-6)" /></defs><path
     d="M 810.85269,427.68042 C 810.8527,414.95242 646.2127,286.84742 633.4987,299.56442 C 620.7697,312.29343 607.2067,351.31243 594.4777,364.04142 C 581.7497,376.77042 530.8377,376.77042 505.3827,376.77042 C 479.9267,376.76942 429.0147,376.76942 416.2877,364.04142 C 403.55869,351.31242 390.8957,313.19441 378.1717,300.46842 C 365.4207,287.71842 201.1267,414.94342 200.6187,425.56042 C 199.9117,440.41042 366.2227,566.84242 378.9507,554.11442 C 390.4157,542.64942 403.5577,504.05042 416.2867,491.32242 C 429.01571,478.59442 486.2907,478.59442 505.3827,478.59442 C 518.11069,478.59442 581.7507,478.59442 594.4777,491.32342 C 607.2067,504.05142 619.5067,541.80841 633.1657,555.46842 C 646.2487,568.54642 810.85269,441.89442 810.85269,427.68042 z"
     id="path3870"
     style="opacity:1;fill:url(#linearGradient3885);fill-opacity:1;stroke:#000000;stroke-width:20;stroke-linecap:round;stroke-linejoin:round;stroke-miterlimit:1;stroke-dasharray:none" /></svg>
